X:119
T:Souto la cauprenedo
R:Polka
S:Carnet du tambourinaire Ginas (1924)
O:France
A:Provence
C:J. Ginas
Z:Pour toute observation mailto:galouvielle@free.fr
Z:Transcrit et/ou corrig par Michel BELLON - 2005-07-16
M:2/4
L:1/8
K:Bb
d/d/d/d/ | dc BG | F2 e/e/e/e/ | GA cB | B2 d/d/d/d/ | df ed | g2 f/e/d/c/ | BF dc | B2 :: d2 |
f2 e/d/c/B/ | A2 F/G/A/B/ | c2 c/d/e/f/ | g2 fz/f/ | b2 b/d/e/f/ | g2 G/A/B/G/ | F2 F/e/d/c/ | B2 :: zA |
K:F
ff ff | f3e | Ag fe | f2dz/d/  | ee ee | A2 za | gc de | f2 !D.C.! :|
%%footer $D   Galouvielle-MBe 2005 \nQuadrille France
